X: 5117
T: Bridget Cruise
R: waltz
M: 3/4
K: Gmajor
(3def|g2cB AG|d4g>f|e2gfed|e4g>f|ed cB A{BA}G|FE FG A>G|G6|G4 (3def|
g2cB AG|g4g>f|e2gfed|e4g>f|ed cB A{BA}G|FE FG TA>G|G6|G4 (3cBA|
G3A B>c|d4g>f|e2gfed|e4 (3cBA|G>A B>c de/f/|g2g>b a>g|f2 Te3d|d4 (3def|
g2gB AF|G2g2f>g|e2gf ed|B4g>f|ed cB AG|FE FG A>G|G6|G4||

